X:287
T: LASS DICH NUR NICHTS NICHT DAUERN
N: B0765
O: Europa, Mitteleuropa, Deutschland
R: Moral - Lied, religioes
M: 4/4
L: 1/8
K: G
d2 | d3cB2A2 | A4G2
e2 | d4^c2c2 | d2A2z2
F2 | G3AB2B2 | c3de2
ed | d3cB2A2 | d4d2
ed | d2=f2e2B2 | d4-dc
BA | G4B3A | G4z2

